src/svg/paintcan.svg

<svg height="16" width="12" xmlns="http://www.w3.org/2000/svg" viewBox="0 0 12 16">
  <path d="M6 0C2.69 0 0 2.69 0 6v1c0 0.55 0.45 1 1 1v5c0 1.1 2.24 2 5 2s5-0.9 5-2V8c0.55 0 1-0.45 1-1v-1C12 2.69 9.31 0 6 0zM9 10v0.5c0 0.28-0.22 0.5-0.5 0.5s-0.5-0.22-0.5-0.5v-0.5c0-0.28-0.22-0.5-0.5-0.5s-0.5 0.22-0.5 0.5v2.5c0 0.28-0.22 0.5-0.5 0.5s-0.5-0.22-0.5-0.5V10.5c0-0.28-0.22-0.5-0.5-0.5s-0.5 0.22-0.5 0.5v0.5c0 0.55-0.45 1-1 1s-1-0.45-1-1v-1c-0.55 0-1-0.45-1-1V7.2C2.91 7.69 4.36 8 6 8s3.09-0.31 4-0.8V9C10 9.55 9.55 10 9 10zM6 7c-1.68 0-3.12-0.41-3.71-1 0.59-0.59 2.03-1 3.71-1s3.12 0.41 3.71 1C9.12 6.59 7.68 7 6 7zM6 4c-2.76 0-5 0.89-5 2 0 0 0 0 0 0C1 3.24 3.24 1 6 1c2.76 0 5 2.24 5 5C11 4.9 8.76 4 6 4z" />
</svg>

<?xml version="1.0" encoding="UTF-8" standalone="no"?>
<svg width="12px" height="16px" viewBox="0 0 12 16" version="1.1" xmlns="http://www.w3.org/2000/svg" xmlns:xlink="http://www.w3.org/1999/xlink">
    <!-- Generator: Sketch 3.7.1 (28215) - http://www.bohemiancoding.com/sketch -->
    <title>paintcan</title>
    <desc>Created with Sketch.</desc>
    <defs></defs>
    <g id="Octicons" stroke="none" stroke-width="1" fill="none" fill-rule="evenodd">
        <g id="paintcan" fill="#000000">
            <path d="M6,0 C2.69,0 0,2.69 0,6 L0,7 C0,7.55 0.45,8 1,8 L1,13 C1,14.1 3.24,15 6,15 C8.76,15 11,14.1 11,13 L11,8 C11.55,8 12,7.55 12,7 L12,6 C12,2.69 9.31,0 6,0 L6,0 Z M9,10 L9,10.5 C9,10.78 8.78,11 8.5,11 C8.22,11 8,10.78 8,10.5 L8,10 C8,9.72 7.78,9.5 7.5,9.5 C7.22,9.5 7,9.72 7,10 L7,12.5 C7,12.78 6.78,13 6.5,13 C6.22,13 6,12.78 6,12.5 L6,10.5 C6,10.22 5.78,10 5.5,10 C5.22,10 5,10.22 5,10.5 L5,11 C5,11.55 4.55,12 4,12 C3.45,12 3,11.55 3,11 L3,10 C2.45,10 2,9.55 2,9 L2,7.2 C2.91,7.69 4.36,8 6,8 C7.64,8 9.09,7.69 10,7.2 L10,9 C10,9.55 9.55,10 9,10 L9,10 Z M6,7 C4.32,7 2.88,6.59 2.29,6 C2.88,5.41 4.32,5 6,5 C7.68,5 9.12,5.41 9.71,6 C9.12,6.59 7.68,7 6,7 L6,7 Z M6,4 C3.24,4 1,4.89 1,6 L1,6 C1,3.24 3.24,1 6,1 C8.76,1 11,3.24 11,6 C11,4.9 8.76,4 6,4 L6,4 Z" id="Shape"></path>
        </g>
    </g>
</svg>
